X:1
T:Little Mohee
M:3/4
L:1/4
K:D
 D| D F A| A E2-| E3-| E2D/2-D/2| E F E| D3-| D3-| D2 D| D F A| A E2-|\
 E3-| E2 E/2E/2| E F E| D3-| D3-| D2 D| D F A| d3| B3-| B2 D| G A B|\
 A3-| A3-| A2 F| D F A| A E2-| E3-| E2 E/2E/2| E F E| D3-| D3-| D2||\
